X:71
T:A NORTH COUNTRY FRISK (Re-tune AEAE, play as written)
B:John of the Greeny Cheshire Way
N:\251 John Offord, Reproduced with permission
M:3/2
L:1/8
K:A
P:1
c4 Bdc>B A4 | c2 e2 B2 d2 c2 B>A |\
F2 B2 E2 =G2 F2 B2 | =G,2 D2 A2 c2 B2 A2 ||
P:2
c2 e2 d2 f2 c2 e2 | B2 d2 c2 B>A F2 B2 |\
E2 D2 =C2 B,2 A,=CB,A, | =G,2 D2 A2 ^c2 B2 A2 ||
P:3
a2 c2 B2 a2 ^g2 e2 | a2 c2 dcBA F2 B2 |\
A2 D2 B2 D2 cec>B | A2 =G,4 B,2 A,2 =G,2 ||
P:4
aedc BcdB cdef | edcB AcBA FABc |\
dcBA F=GFE D=CB,A, | =G,2 D2 A2 ^c2 B2 A2 ||
P:5
(3c A3D2 (3c A3D2 (3c A3D2 | F2 B4 c2 dcBA |\
F2 E2 D2 =C2 B,2 A,2 | =G,2 A4 ^c2 B2 A2 |]
